usr/share/icons/biglinux-icons-material-dark/16/actions/mail-mark-read.svg

<svg version="1.1" viewBox="0 0 16 16" xmlns="http://www.w3.org/2000/svg">
 <defs>
  <style id="current-color-scheme" type="text/css">.ColorScheme-Text {
        color:#dedede;
      }</style>
 </defs>
 <path d="m3 0c-0.554 0-1 0.446-1 1v1c-1.108 0-2 0.892-2 2v8c0 1.108 0.892 2 2 2h12c1.108 0 2-0.892 2-2v-8c0-1.108-0.892-2-2-2v-1c0-0.554-0.446-1-1-1h-10zm0 1h10v1 1 2.3789l-4.4609 3.5527c-0.30559 0.24335-0.77256 0.24335-1.0781 0l-4.4609-3.5527v-2.3789-1-1zm1.5 1c-0.277 0-0.5 0.223-0.5 0.5s0.223 0.5 0.5 0.5h7c0.277 0 0.5-0.223 0.5-0.5s-0.223-0.5-0.5-0.5h-7zm-2.5 1v1.584l-0.96289-0.76758c0.088406-0.46235 0.47401-0.81641 0.96289-0.81641zm12 0c0.48888 0 0.87448 0.35406 0.96289 0.81641l-0.96289 0.76758v-1.584zm-9.5 1c-0.277 0-0.5 0.223-0.5 0.5s0.223 0.5 0.5 0.5h7c0.277 0 0.5-0.223 0.5-0.5s-0.223-0.5-0.5-0.5h-7zm-3.5 1.0488 3.7051 2.9512-3.7051 2.9512v-5.9023zm14 0v5.9023l-3.7051-2.9512 3.7051-2.9512zm-9.502 3.584 1.1699 0.93164c0.73087 0.58201 1.9332 0.58201 2.6641 0l1.1699-0.93164 4.4609 3.5508c-0.08841 0.46235-0.47401 0.81641-0.96289 0.81641h-12c-0.48888 0-0.87448-0.35406-0.96289-0.81641l4.4609-3.5508z" style="fill:currentColor" class="ColorScheme-Text"/>
</svg>

<svg xmlns="http://www.w3.org/2000/svg" viewBox="0 0 16 16">
<defs>
<style id="current-color-scheme" type="text/css">
.ColorScheme-Text{color:#dedede}
</style>
</defs>
<path d="M3 0c-.554 0-1 .446-1 1v1C.892 2 0 2.892 0 4v8c0 1.108.892 2 2 2h12c1.108 0 2-.892 2-2V4c0-1.108-.892-2-2-2V1c0-.554-.446-1-1-1zm0 1h10v4.379L8.54 8.932a.89.89 0 0 1-1.079 0l-4.46-3.553zm1.5 1a.499.499 0 1 0 0 1h7a.499.499 0 1 0 0-1zM2 3v1.584l-.963-.768A.98.98 0 0 1 2 3m12 0c.489 0 .874.354.963.816L14 4.584zM4.5 4a.499.499 0 1 0 0 1h7a.499.499 0 1 0 0-1zM1 5.049 4.705 8 1 10.951zm14 0v5.902L11.295 8zM5.498 8.633l1.17.931c.73.582 1.933.582 2.664 0l1.17-.931 4.46 3.55A.98.98 0 0 1 14 13H2a.98.98 0 0 1-.963-.816z" class="ColorScheme-Text" style="fill:currentColor"/>
</svg>
